src/sfx2/res/indexoff_big.svg

<svg viewBox="0 0 24 24" xmlns="http://www.w3.org/2000/svg"><path d="m5 4v1h1v2h-1v1h3v-1h-1v-2h1v-1zm5 0v1h1 9v-1h-9zm0 2v1h1 6v-1h-6zm-6 4v1h1v2h-1v1h5v-1h-1v-2h1v-1zm6 0v1h1 9v-1h-9zm-4 1h1v2h-1zm4 1v1h1 2v-1h-2zm5.875 0v1h4.125v-1zm-5.875 4v1h6v-1zm8 0v1h2v-1zm-8 2v1h2v-1zm4 0v1h6v-1z" fill="#b3b3b3"/></svg>

<?xml version="1.0" encoding="UTF-8" standalone="no"?>
<svg
   xmlns:dc="http://purl.org/dc/elements/1.1/"
   xmlns:cc="http://creativecommons.org/ns#"
   xmlns:rdf="http://www.w3.org/1999/02/22-rdf-syntax-ns#"
   xmlns:svg="http://www.w3.org/2000/svg"
   xmlns="http://www.w3.org/2000/svg"
   xmlns:sodipodi="http://sodipodi.sourceforge.net/DTD/sodipodi-0.dtd"
   xmlns:inkscape="http://www.inkscape.org/namespaces/inkscape"
   viewBox="0 0 24 24"
   version="1.1"
   id="svg4"
   sodipodi:docname="indexoff_big.svg"
   inkscape:version="0.92.4 (5da689c313, 2019-01-14)">
  <metadata
     id="metadata10">
    <rdf:RDF>
      <cc:Work
         rdf:about="">
        <dc:format>image/svg+xml</dc:format>
        <dc:type
           rdf:resource="http://purl.org/dc/dcmitype/StillImage" />
      </cc:Work>
    </rdf:RDF>
  </metadata>
  <defs
     id="defs8" />
  <sodipodi:namedview
     pagecolor="#ffffff"
     bordercolor="#666666"
     borderopacity="1"
     objecttolerance="10"
     gridtolerance="10"
     guidetolerance="10"
     inkscape:pageopacity="0"
     inkscape:pageshadow="2"
     inkscape:window-width="1920"
     inkscape:window-height="1011"
     id="namedview6"
     showgrid="true"
     inkscape:zoom="27.812867"
     inkscape:cx="14.574864"
     inkscape:cy="14.517197"
     inkscape:window-x="0"
     inkscape:window-y="32"
     inkscape:window-maximized="1"
     inkscape:current-layer="svg4">
    <inkscape:grid
       type="xygrid"
       id="grid817" />
  </sodipodi:namedview>
  <path
     d="M 5,4 V 5 H 6 V 7 H 5 V 8 H 8 V 7 H 7 V 5 H 8 V 4 Z m 5,0 v 1 h 1 9 V 4 h -9 z m 0,2 v 1 h 1 9 V 6 h -9 z m -6,4 v 1 h 1 v 2 H 4 v 1 H 9 V 13 H 8 v -2 h 1 v -1 z m 6,0 v 1 h 1 9 v -1 h -9 z m -4,1 h 1 v 2 H 6 Z m 4,1 v 1 h 10 v -1 z m 0,4 v 1 h 10 v -1 z m 0,2 v 1 h 10 v -1 z"
     id="path2"
     inkscape:connector-curvature="0"
     style="fill:#b3b3b3"
     sodipodi:nodetypes="ccccccccccccccccccccccccccccccccccccccccccccccccccccccccccccccccccc" />
</svg>
